X:10803
T:St. Kilda Wedding
R:Reel
B:Tuneworks Tunebook (https://www.tuneworks.co.uk/)
G:tuneworks
Z:Jon Warbrick <jon.warbrick@googlemail.com>
M:4/4
L:1/8
K:A
|: "A"A2 Ac Acec | "D"B2 cA "E"F2 EF | "A"A2 cB Acea | [1"D"f2 fe "E"fefa  :| [2"D"f2 "E"fe fefg ||
"F#m"a2 ab aeea | "E"fgag f2 ed | "D"cefg agfa | "E"ecac BdcB | 
"F#m"Aaag aeea | "E"fgag f2 ed | "D"cefg agfa | "E"ecac BdcB |]
